X:282
T: AUF BRUEDER LASST UNS LUSTIG LEBEN
N: F0497
O: Europa, Mitteleuropa, Deutschland
R: Studenten - Lied
M: 3/4
L: 1/8
K: Eb
B2 | B4e2 | B4G2 | A2F2B2 | G2E2
B,2 | EEEEEE | E4
B2 | B4e2 | B4G2 | A2F2B2 | G2E2
F2 | GGGGGG | G4
B2 | e2d2c2 | B2A2G2 | A2B2c2 | B4
B2 | e2d2c2 | B2A2G2 | A2F2B2 | E4
B,2 | EEEEEE | E4
F2 | GGGGGG | G4
B2 | eeeeee | e4

